src/containers/site/SiteSafetyScreen/asset/safety_feature_1.svg

<svg width="64" height="67" viewBox="0 0 64 67" fill="none" xmlns="http://www.w3.org/2000/svg">
<path d="M6 0V60H58V0L6 0Z" fill="url(#paint0_linear)"/>
<path fill-rule="evenodd" clip-rule="evenodd" d="M2.11289 4H61.8871C63.0458 4 64 4.90527 64 6.04524V10.1692V64.7201C64 65.9941 62.9436 67 61.6826 67H2.31736C1.02236 67 0 65.9606 0 64.7201V10.2028V6.07877C0 4.9388 0.954206 4 2.11289 4ZM3.37381 63.6471H60.6262H60.6603V13.2538H3.37381V63.6471Z" fill="url(#paint1_linear)"/>
<path d="M4.5 10C5.32843 10 6 9.32843 6 8.5C6 7.67157 5.32843 7 4.5 7C3.67157 7 3 7.67157 3 8.5C3 9.32843 3.67157 10 4.5 10Z" fill="white"/>
<path d="M10.5 10C11.3284 10 12 9.32843 12 8.5C12 7.67157 11.3284 7 10.5 7C9.67157 7 9 7.67157 9 8.5C9 9.32843 9.67157 10 10.5 10Z" fill="white"/>
<path d="M15.5 10C16.3284 10 17 9.32843 17 8.5C17 7.67157 16.3284 7 15.5 7C14.6716 7 14 7.67157 14 8.5C14 9.32843 14.6716 10 15.5 10Z" fill="white"/>
<path fill-rule="evenodd" clip-rule="evenodd" d="M22.4536 31H42.5464C43.9058 31 45 32.125 45 33.5227V49.4773C45 50.875 43.9058 52 42.5464 52H22.4536C21.0942 52 20 50.875 20 49.4773V33.5227C20 32.125 21.0942 31 22.4536 31ZM34.0584 46.3749V42.0454C34.7879 41.534 35.2852 40.6477 35.3184 39.6249C35.3184 37.9886 34.0253 36.6931 32.4669 36.6931C30.8754 36.6931 29.6155 38.0227 29.6155 39.6249C29.6155 40.6477 30.1128 41.534 30.8754 42.0454V46.3749H34.0584Z" fill="white"/>
<path d="M40.2056 35C39.2556 35 38.4815 34.211 38.4815 33.2427V27.8274C38.4815 24.4921 35.913 21.6589 32.6407 21.5513C29.2278 21.4437 26.4481 24.241 26.4481 27.6839V33.2427C26.4481 34.211 25.6741 35 24.7241 35C23.7741 35 23 34.211 23 33.2427V27.8632C23 22.4479 27.363 17.9291 32.6759 18.0008C37.8481 18.1084 42 22.412 42 27.6839V33.2427C41.9296 34.211 41.1556 35 40.2056 35Z" fill="white"/>
<defs>
<linearGradient id="paint0_linear" x1="6.0087" y1="60.0108" x2="58.0257" y2="60.0108" gradientUnits="userSpaceOnUse">
<stop stop-color="#FFB833"/>
<stop offset="1" stop-color="#FF964D"/>
</linearGradient>
<linearGradient id="paint1_linear" x1="0.0754603" y1="66.4344" x2="62.932" y2="66.4344" gradientUnits="userSpaceOnUse">
<stop stop-color="#658BF5"/>
<stop offset="1" stop-color="#8DB0FF"/>
</linearGradient>
</defs>
</svg>

<svg width="64" height="67" fill="none" xmlns="http://www.w3.org/2000/svg"><path d="M6 0v60h52V0H6z" fill="url(#paint0_linear)"/><path fill-rule="evenodd" clip-rule="evenodd" d="M2.113 4h59.774C63.046 4 64 4.905 64 6.045V64.72c0 1.274-1.056 2.28-2.317 2.28H2.317C1.022 67 0 65.96 0 64.72V6.08C0 4.939.954 4 2.113 4zm1.26 59.647H60.66V13.254H3.374v50.393z" fill="url(#paint1_linear)"/><path d="M4.5 10a1.5 1.5 0 100-3 1.5 1.5 0 000 3zM10.5 10a1.5 1.5 0 100-3 1.5 1.5 0 000 3zM15.5 10a1.5 1.5 0 100-3 1.5 1.5 0 000 3z" fill="#fff"/><path fill-rule="evenodd" clip-rule="evenodd" d="M22.454 31h20.092C43.906 31 45 32.125 45 33.523v15.954C45 50.875 43.906 52 42.546 52H22.454C21.094 52 20 50.875 20 49.477V33.523C20 32.125 21.094 31 22.454 31zm11.604 15.375v-4.33c.73-.511 1.227-1.397 1.26-2.42 0-1.636-1.293-2.932-2.851-2.932-1.592 0-2.851 1.33-2.851 2.932 0 1.023.497 1.909 1.26 2.42v4.33h3.182z" fill="#fff"/><path d="M40.206 35c-.95 0-1.725-.789-1.725-1.757v-5.416c0-3.335-2.568-6.168-5.84-6.276-3.413-.107-6.193 2.69-6.193 6.133v5.559c0 .968-.774 1.757-1.724 1.757S23 34.211 23 33.243v-5.38c0-5.415 4.363-9.934 9.676-9.862 5.172.107 9.324 4.411 9.324 9.683v5.559c-.07.968-.844 1.757-1.794 1.757z" fill="#fff"/><defs><linearGradient id="paint0_linear" x1="6.009" y1="60.011" x2="58.026" y2="60.011" gradientUnits="userSpaceOnUse"><stop stop-color="#FFB833"/><stop offset="1" stop-color="#FF964D"/></linearGradient><linearGradient id="paint1_linear" x1=".075" y1="66.434" x2="62.932" y2="66.434" gradientUnits="userSpaceOnUse"><stop stop-color="#658BF5"/><stop offset="1" stop-color="#8DB0FF"/></linearGradient></defs></svg>
